X: 22538
T: Lady Harriet Hope
R: reel
M: 4/4
K: Dmajor
DFAd A2GF|d2fd e3A|DFAd A2GF|GEAG (3(FGA) D2|
DFAd A2GF|d2fd e3A|DFAd A2GF|GEAG (3(FGA) D2||
d2de dfed|cAEA FAEA|d2de dfed|Bdce d3A|
d2de dfed|e3f gfef|dBAG (3(FGA) dB|AF GE D2||

